img/linkedin.svg

<svg xmlns="http://www.w3.org/2000/svg" width="78" height="78" viewBox="0 0 78 78"><path fill="#0E7983" d="M71.4 1h-64.8c-3.1 0-5.6 2.5-5.6 5.5v65c0 3 2.5 5.5 5.6 5.5h64.8c3.1 0 5.6-2.5 5.6-5.5v-65c0-3-2.5-5.5-5.6-5.5z"/><path fill="#fff" d="M12.3 29.5h11.3v36.3h-11.3v-36.3zm5.6-18c3.6 0 6.5 2.9 6.5 6.5s-2.9 6.5-6.5 6.5-6.5-2.9-6.5-6.5 2.9-6.5 6.5-6.5"/><path fill="#fff" d="M30.6 29.5h10.8v5h.2c1.5-2.9 5.2-5.9 10.7-5.9 11.4 0 13.5 7.5 13.5 17.3v19.9h-11.3v-17.7c0-4.2-.1-9.6-5.9-9.6-5.9 0-6.8 4.6-6.8 9.3v17.9h-11.2v-36.2z"/></svg>

<?xml version="1.0" encoding="utf-8"?>
<!-- Generator: Adobe Illustrator 16.0.0, SVG Export Plug-In . SVG Version: 6.00 Build 0)  -->
<!DOCTYPE svg PUBLIC "-//W3C//DTD SVG 1.1//EN" "http://www.w3.org/Graphics/SVG/1.1/DTD/svg11.dtd">
<svg version="1.1" id="Layer_1" xmlns="http://www.w3.org/2000/svg" xmlns:xlink="http://www.w3.org/1999/xlink" x="0px" y="0px"
	 width="78px" height="78px" viewBox="0 0 78 78" enable-background="new 0 0 78 78" xml:space="preserve">
<g>
	<g>
		<g>
			<path fill="#0E7983" d="M71.4,1H6.6C3.5,1,1,3.5,1,6.5v65c0,3,2.5,5.5,5.6,5.5h64.8c3.1,0,5.6-2.5,5.6-5.5v-65
				C77,3.5,74.5,1,71.4,1z"/>
			<path fill="#FFFFFF" d="M12.3,29.5h11.3v36.3H12.3V29.5z M17.9,11.5c3.6,0,6.5,2.9,6.5,6.5c0,3.6-2.9,6.5-6.5,6.5
				c-3.6,0-6.5-2.9-6.5-6.5C11.4,14.4,14.3,11.5,17.9,11.5"/>
			<path fill="#FFFFFF" d="M30.6,29.5h10.8v5h0.2c1.5-2.9,5.2-5.9,10.7-5.9c11.4,0,13.5,7.5,13.5,17.3v19.9H54.5V48.1
				c0-4.2-0.1-9.6-5.9-9.6c-5.9,0-6.8,4.6-6.8,9.3v17.9H30.6V29.5z"/>
		</g>
	</g>
</g>
</svg>
